X:1028
T:Tesseract
C:Colin Hume, 2003
L:1/4
M:2/2
R:Reel
S:Colin Hume's website,  colinhume.com  - chords can also be printed below the stave.
%%MIDI program 71       % Clarinet
%%MIDI chordprog 24     % Acoustic Guitar (nylon)
%%MIDI bassprog 32      % Acoustic Bass
Q:1/2=112
K:Am
P:A
|: "Am"A>B cA | "Dm"dD2A | "E"^G>A Be | "Am"cA2c |\
"Dm"dA2d | "Am"eA2e | "Dm"f>e dc | "E"B4 :|
P:B
K:A
|: "A"ce Ac | "E"Be GB | "F#m"Ac FA | "C#7"Gc =FG |\
"D"F>G AB | "A"cd eA | "Bm"f>e dc |1 "E7"c2 B2 :|2 "E7"B2 "A"A2 |]

